build/svg/cmd/sc_dbqueryedit.svg

<?xml version="1.0" encoding="UTF-8" standalone="no"?>
<svg
   xmlns:dc="http://purl.org/dc/elements/1.1/"
   xmlns:cc="http://creativecommons.org/ns#"
   xmlns:rdf="http://www.w3.org/1999/02/22-rdf-syntax-ns#"
   xmlns:svg="http://www.w3.org/2000/svg"
   xmlns="http://www.w3.org/2000/svg"
   xmlns:sodipodi="http://sodipodi.sourceforge.net/DTD/sodipodi-0.dtd"
   xmlns:inkscape="http://www.inkscape.org/namespaces/inkscape"
   viewBox="0 0 16 16"
   version="1.1"
   id="svg6"
   sodipodi:docname="sc_dbqueryedit.svg"
   inkscape:version="0.92.5 (2060ec1f9f, 2020-04-08)"
   inkscape:export-filename="/home/jupiter007/Libreoffice yaru theme fullcolor/build/cmd/sc_dbqueryedit.png"
   inkscape:export-xdpi="95"
   inkscape:export-ydpi="95">
  <metadata
     id="metadata12">
    <rdf:RDF>
      <cc:Work
         rdf:about="">
        <dc:format>image/svg+xml</dc:format>
        <dc:type
           rdf:resource="http://purl.org/dc/dcmitype/StillImage" />
      </cc:Work>
    </rdf:RDF>
  </metadata>
  <defs
     id="defs10" />
  <sodipodi:namedview
     pagecolor="#ffffff"
     bordercolor="#666666"
     borderopacity="1"
     objecttolerance="10"
     gridtolerance="10"
     guidetolerance="10"
     inkscape:pageopacity="0"
     inkscape:pageshadow="2"
     inkscape:window-width="1920"
     inkscape:window-height="1011"
     id="namedview8"
     showgrid="true"
     inkscape:zoom="16"
     inkscape:cx="-11.800058"
     inkscape:cy="2.19645"
     inkscape:window-x="1920"
     inkscape:window-y="32"
     inkscape:window-maximized="1"
     inkscape:current-layer="svg6">
    <inkscape:grid
       type="xygrid"
       id="grid828" />
  </sodipodi:namedview>
  <path
     style="fill:#f2cbf8;fill-opacity:1;stroke-width:0.91666681"
     id="path817"
     d="M 8,2.5 C 4.962434,2.5 2.5,3.3208113 2.5,4.3333333 V 11.666666 C 2.5,12.679188 4.962434,13.5 8,13.5 c 3.037565,0 5.5,-0.820812 5.5,-1.833334 V 4.3333333 C 13.5,3.3208113 11.037565,2.5 8,2.5 Z"
     inkscape:connector-curvature="0"
     sodipodi:nodetypes="sssssss" />
  <path
     inkscape:connector-curvature="0"
     d="M 8,2 A 6,2 0 0 0 2,4 v 8 a 6,2 0 0 0 6,2 6,2 0 0 0 6,-2 V 4 A 6,2 0 0 0 8,2 Z M 8,3 A 5,1 0 0 1 13,4 5,1 0 0 1 8,5 5,1 0 0 1 3,4 5,1 0 0 1 8,3 Z M 3,5.1015625 A 6,2 0 0 0 8,6 6,2 0 0 0 13,5.1035156 V 8 A 5,1 0 0 1 8,9 5,1 0 0 1 3,8 Z m 0,4 A 6,2 0 0 0 8,10 6,2 0 0 0 13,9.1035156 V 12 A 5,1 0 0 1 8,13 5,1 0 0 1 3,12 Z"
     id="path2"
     style="fill:#8e03a3;fill-opacity:1" />
  <g
     style="display:inline;stroke-width:27.20000267;enable-background:new"
     transform="matrix(0.03808017,0.02198561,-0.02384508,0.04130087,-7.1493609,-14.963289)"
     id="g1151">
    <path
       style="fill:#fec589;fill-opacity:1;stroke:none;stroke-width:27.20000267"
       d="m 688.00003,319.35584 -32,81.13762 -31.99999,-81.13762 v -11.06422 h 63.99999 z"
       id="path1145"
       inkscape:connector-curvature="0" />
    <path
       style="color:#000000;display:inline;overflow:visible;visibility:visible;fill:#5d5d5d;fill-opacity:1;fill-rule:nonzero;stroke:none;stroke-width:27.20000267;marker:none;enable-background:accumulate"
       d="m 645.81253,374.67694 10.1875,25.81651 10.1875,-25.81651 c 0.0102,0.17481 -20.375,0 -20.375,0 z"
       id="path1147"
       inkscape:connector-curvature="0"
       sodipodi:nodetypes="cccc" />
    <path
       style="fill:#2f5fdd;fill-opacity:1;stroke:none;stroke-width:27.20000267"
       d="m 624.00004,319.35583 c 0,0 65.02041,1.58617 63.99999,0 V 127.90048 h -63.99999 z"
       id="path1149"
       inkscape:connector-curvature="0"
       sodipodi:nodetypes="ccccc" />
  </g>
</svg>

<svg xmlns="http://www.w3.org/2000/svg" viewBox="0 0 16 16"><path d="M8 2.5c-3.038 0-5.5.82-5.5 1.833v7.334C2.5 12.679 4.962 13.5 8 13.5s5.5-.82 5.5-1.833V4.333C13.5 3.321 11.038 2.5 8 2.5z" fill="#f2cbf8"/><path d="M8 2a6 2 0 00-6 2v8a6 2 0 006 2 6 2 0 006-2V4a6 2 0 00-6-2zm0 1a5 1 0 015 1 5 1 0 01-5 1 5 1 0 01-5-1 5 1 0 015-1zM3 5.102A6 2 0 008 6a6 2 0 005-.896V8a5 1 0 01-5 1 5 1 0 01-5-1zm0 4A6 2 0 008 10a6 2 0 005-.896V12a5 1 0 01-5 1 5 1 0 01-5-1z" fill="#8e03a3"/><g stroke-width="27.2"><path d="M11.435 13.352L8.28 16l.717-4.055.263-.457 2.438 1.408z" fill="#fec589"/><path style="marker:none" d="M8.51 14.71L8.28 16l1.004-.842c-.004.007-.776-.448-.776-.448z" color="#000" overflow="visible" fill="#5d5d5d"/><path d="M8.998 11.945s2.438 1.495 2.437 1.407L16 5.445l-2.437-1.407z" fill="#2f5fdd"/></g></svg>
